X:30
T:Nancy Lee
C:Frederick E. Weatherly/Stephen Adams
S:From "The One Hundred and One Best Songs" / The Cable Company / 1919 / Chicago, Illinois
M:6/8
L:1/8
Q:1/4=160
%%staves [(1)]
K:Eb
V:1 clef=treble
!f!"^{<__With spirit"B | B3-B2 c | B2 G E2 C | B,3- (B,EG) | B3 Lc3 | LB3-B FG | A3 Lc3 |
w:1.~Of all* the wives as e'er you know,____ Yeo-ho!* lads!* ho! Yeo\-
w:2.~The har\-* bor's past, the breez-es blow,____ Yeo-ho!* lads!* ho! Yeo\-
w:3.~The bo'\-* s'n pipes the watch be-low,____ Yeo-ho!* lads!* ho! Yeo\-
LB3-B EF | G2 z z2 B | B3-B2 c | B2 G E2 C | B,3- (B,EG) | B3 Le3 |
w:ho!* Yeo\-* ho! There's none* like Nan-cy Lee, I trow,____ Yeo\-
w:ho!* Yeo\-* ho! 'Tis long* ere we come back, I know,____ Yeo\-
w:ho!* Yeo\-* ho! Then here's* a health be-fore we go,____ Yeo\-
Ld3-d LG=A | B3-B L=AB | G3 z2 z | z2 z z2 G | A2 A B2 B |
w:ho!* Yeo\-* ho!* Yeo\-* ho! See there she stands an'
w:ho!* Yeo\-* ho!* Yeo\-* ho! But true an' bright from
w:ho!* Yeo\-* ho!* Yeo\-* ho! A long, long life to
c2 c d2 d | B3-B2 G | B3 z2 G | B2 B =A2 =A | A2 A F2 F |
